X:8016
T:Halsway Schottische
T:Halsway Carol
R:Schottische
C:Nigel Eaton 2011
O:England
R:March
Z:Paul Hardy's Session Tunebook 2015 (see www.paulhardy.net). Creative Commons cc by-nc-sa licenced.
M:4/4
L:1/8
Q:1/4=160
K:D
"D"A2GF "A"EDEF|"G"B2A2"Em"E2FG|"G"B2A2 "Em"GFED|"G"G2F2"A"E4|
"D"A2GF "A"EDEF|"G"G2F2"A"E2F2|"D"D2EF "A7"GFED|1 "D"F2E2 D4:|2 "D"F2E2 D3 d|
|:"D"cd A3 dcd|"G"G2GA "D"F2FG|"Em"E2FG "D"AGFE|"G"G2F2 "A"E3d|
"D"cd A2 "A"ABcd|"G"G2GA "D"F2FG|"Em"E2FG "A"AGFE|1 "D"F2E2 D3d:|2 "D"F2E2 D4|]

